jimu.js/css/fonts/Themefont.svg

<?xml version="1.0" standalone="no"?>
<!DOCTYPE svg PUBLIC "-//W3C//DTD SVG 1.1//EN" "http://www.w3.org/Graphics/SVG/1.1/DTD/svg11.dtd" >
<svg xmlns="http://www.w3.org/2000/svg">
<metadata>Generated by IcoMoon</metadata>
<defs>
<font id="wabfont" horiz-adv-x="1024">
<font-face units-per-em="1024" ascent="960" descent="-64" />
<missing-glyph horiz-adv-x="1024" />
<glyph unicode="&#x20;" horiz-adv-x="512" d="" />
<glyph unicode="&#xa901;" glyph-name="search" d="M711.111 334.222h-45.511l-17.067 17.067c56.889 62.578 91.022 147.911 91.022 238.933 0 204.8-164.978 369.778-369.778 369.778s-369.778-164.978-369.778-369.778c0-204.8 164.978-369.778 369.778-369.778 91.022 0 176.356 34.133 238.933 91.022l17.067-17.067v-45.511l284.444-284.444 85.333 85.333-284.444 284.444zM369.778 334.222c-142.222 0-256 113.778-256 256s113.778 256 256 256c142.222 0 256-113.778 256-256s-113.778-256-256-256v0z" />
<glyph unicode="&#xa902;" glyph-name="zoom-out" d="M1024 374.857h-1024v146.286h1024v-146.286z" />
<glyph unicode="&#xa903;" glyph-name="add" d="M585.143 383.723v-432.208h-146.286v432.208h-438.857v144.069h438.857v432.208h146.286v-432.208h438.857v-144.069h-438.857z" />
<glyph unicode="&#xa904;" glyph-name="close" d="M1024 857.6l-102.4 102.4-409.6-409.6-409.6 409.6-102.4-102.4 409.6-409.6-409.6-409.6 102.4-102.4 409.6 409.6 409.6-409.6 102.4 102.4-409.6 409.6 409.6 409.6z" />
<glyph unicode="&#xa905;" glyph-name="fullscreen-exit" d="M0 155.429h219.429v-219.429h146.286v365.714h-365.714v-146.286zM219.429 740.571h-219.429v-146.286h365.714v365.714h-146.286v-219.429zM658.286-64h146.286v219.429h219.429v146.286h-365.714v-365.714zM804.571 740.571v219.429h-146.286v-365.714h365.714v146.286h-219.429z" />
<glyph unicode="&#xa906;" glyph-name="fullscreen" d="M146.286 301.714h-146.286v-365.714h365.714v146.286h-219.429v219.429zM0 594.286h146.286v219.429h219.429v146.286h-365.714v-365.714zM877.714 82.286h-219.429v-146.286h365.714v365.714h-146.286v-219.429zM658.286 960v-146.286h219.429v-219.429h146.286v365.714h-365.714z" />
<glyph unicode="&#xa907;" glyph-name="location" d="M512 634.182c-102.4 0-186.182-83.782-186.182-186.182s83.782-186.182 186.182-186.182c102.4 0 186.182 83.782 186.182 186.182s-83.782 186.182-186.182 186.182v0zM926.255 494.545c-23.273 195.491-176.873 349.091-367.709 367.709v97.745h-93.091v-97.745c-195.491-18.618-349.091-172.218-367.709-367.709h-97.745v-93.091h97.745c23.273-195.491 176.873-349.091 367.709-367.709v-97.745h93.091v97.745c195.491 23.273 349.091 176.873 367.709 367.709h97.745v93.091h-97.745zM512 122.182c-181.527 0-325.818 144.291-325.818 325.818s144.291 325.818 325.818 325.818c181.527 0 325.818-144.291 325.818-325.818s-144.291-325.818-325.818-325.818v0z" />
<glyph unicode="&#xa908;" glyph-name="home" horiz-adv-x="1138" d="M455.111-35.556v341.333h227.556v-341.333h284.444v455.111h170.667l-568.889 512-568.889-512h170.667v-455.111h284.444z" />
<glyph unicode="&#xa909;" glyph-name="compass" d="M0 448h512v-512h56.889l455.111 1024-1024-455.111v-56.889z" />
<glyph unicode="&#xa910;" glyph-name="move" d="M246.857 504.889v135.111l-246.857-199.111 246.857-199.111v135.111h521.143v-135.111l246.857 199.111-246.857 199.111v-135.111h-521.143zM583.111 713.143h135.111l-199.111 246.857-199.111-246.857h135.111v-521.143h-135.111l199.111-246.857 199.111 246.857h-135.111v521.143z" />
<glyph unicode="&#xa911;" glyph-name="rotating" d="M515.186 870.798l101.945-101.945 44.601 44.601-146.546 146.546-146.546-146.546 44.601-44.601 101.945 101.945zM191.147 546.759l-44.601 44.601-146.546-146.546 146.546-146.546 44.601 44.601-101.945 101.945 101.945 101.945zM832.853 342.869l44.601-44.601 146.546 146.546-146.546 146.546-44.601-44.601 101.945-101.945-101.945-101.945zM515.186 38.855l-101.945 101.945-44.601-44.601 146.546-146.546 146.546 146.546-44.601 44.601-101.945-101.945zM512 222.72c124.419 0 225.28 100.861 225.28 225.28s-100.861 225.28-225.28 225.28c-124.419 0-225.28-100.861-225.28-225.28s100.861-225.28 225.28-225.28z" />
<glyph unicode="&#xa912;" glyph-name="environment" horiz-adv-x="979" d="M258.226 746.296l-80.139 80.139-66.783-66.783 80.139-80.139 66.783 66.783zM133.565 492.522h-133.565v-89.043h133.565v89.043zM534.261 933.287h-89.043v-129.113h89.043v129.113zM868.174 759.652l-66.783 66.783-80.139-80.139 62.33-62.33 84.591 75.687zM721.252 149.704l80.139-80.139 62.33 62.33-80.139 80.139-62.33-62.33zM845.913 492.522v-89.043h133.565v89.043h-133.565zM489.739 715.13c-146.922 0-267.13-120.209-267.13-267.13s120.209-267.13 267.13-267.13c146.922 0 267.13 120.209 267.13 267.13s-120.209 267.13-267.13 267.13v0zM445.217-37.287h89.043v129.113h-89.043v-129.113zM111.304 136.348l66.783-66.783 80.139 80.139-62.33 62.33-84.591-75.687z" />
<glyph unicode="&#xa913;" glyph-name="invoked" d="M512-64c-282.77 0-512 229.23-512 512s229.23 512 512 512c282.77 0 512-229.23 512-512s-229.23-512-512-512zM512 38.4c226.216 0 409.6 183.384 409.6 409.6s-183.384 409.6-409.6 409.6c-226.216 0-409.6-183.384-409.6-409.6s183.384-409.6 409.6-409.6zM358.4 601.6h307.2v-307.2h-307.2v307.2z" />
</font></defs></svg>

<svg xmlns="http://www.w3.org/2000/svg"><defs><font id="wabfont" horiz-adv-x="1024"><font-face units-per-em="1024" ascent="960" descent="-64"/><glyph horiz-adv-x="512"/><glyph unicode="꤁" glyph-name="search" d="M711.111 334.222H665.6l-17.067 17.067c56.889 62.578 91.022 147.911 91.022 238.933 0 204.8-164.978 369.778-369.778 369.778S-.001 795.022-.001 590.222s164.978-369.778 369.778-369.778c91.022 0 176.356 34.133 238.933 91.022l17.067-17.067v-45.511L910.221-35.556l85.333 85.333L711.11 334.221zm-341.333 0c-142.222 0-256 113.778-256 256s113.778 256 256 256c142.222 0 256-113.778 256-256s-113.778-256-256-256z"/><glyph unicode="꤂" glyph-name="zoom-out" d="M1024 374.857H0v146.286h1024V374.857z"/><glyph unicode="꤃" glyph-name="add" d="M585.143 383.723V-48.485H438.857v432.208H0v144.069h438.857V960h146.286V527.792H1024V383.723H585.143z"/><glyph unicode="꤄" glyph-name="close" d="M1024 857.6L921.6 960 512 550.4 102.4 960 0 857.6 409.6 448 0 38.4 102.4-64 512 345.6 921.6-64 1024 38.4 614.4 448 1024 857.6z"/><glyph unicode="꤅" glyph-name="fullscreen-exit" d="M0 155.429h219.429V-64h146.286v365.714H.001V155.428zm219.429 585.142H0V594.285h365.714v365.714H219.428V740.57zM658.286-64h146.286v219.429h219.429v146.286H658.287V-63.999zm146.285 804.571V960H658.285V594.286h365.714v146.286H804.57z"/><glyph unicode="꤆" glyph-name="fullscreen" d="M146.286 301.714H0V-64h365.714V82.286H146.285v219.429zM0 594.286h146.286v219.429h219.429v146.286H.001V594.287zm877.714-512H658.285V-64h365.714v365.714H877.713V82.285zM658.286 960V813.714h219.429V594.285h146.286v365.714H658.287z"/><glyph unicode="꤇" glyph-name="location" d="M512 634.182c-102.4 0-186.182-83.782-186.182-186.182S409.6 261.818 512 261.818c102.4 0 186.182 83.782 186.182 186.182S614.4 634.182 512 634.182zm414.255-139.637c-23.273 195.491-176.873 349.091-367.709 367.709v97.745h-93.091v-97.745C269.964 843.636 116.364 690.036 97.746 494.545H.001v-93.091h97.745C121.019 205.963 274.619 52.363 465.455 33.745V-64h93.091v97.745c195.491 23.273 349.091 176.873 367.709 367.709H1024v93.091h-97.745zM512 122.182c-181.527 0-325.818 144.291-325.818 325.818S330.473 773.818 512 773.818 837.818 629.527 837.818 448 693.527 122.182 512 122.182z"/><glyph unicode="꤈" glyph-name="home" horiz-adv-x="1138" d="M455.111-35.556v341.333h227.556V-35.556h284.444v455.111h170.667l-568.889 512L0 419.555h170.667V-35.556h284.444z"/><glyph unicode="꤉" glyph-name="compass" d="M0 448h512V-64h56.889L1024 960 0 504.889V448z"/><glyph unicode="ꤐ" glyph-name="move" d="M246.857 504.889V640L0 440.889l246.857-199.111v135.111H768V241.778l246.857 199.111L768 640V504.889H246.857zm336.254 208.254h135.111L519.111 960 320 713.143h135.111V192H320L519.111-54.857 718.222 192H583.111v521.143z"/><glyph unicode="ꤑ" glyph-name="rotating" d="M515.186 870.798l101.945-101.945 44.601 44.601L515.186 960 368.64 813.454l44.601-44.601 101.945 101.945zM191.147 546.759l-44.601 44.601L0 444.814l146.546-146.546 44.601 44.601L89.202 444.814l101.945 101.945zm641.706-203.89l44.601-44.601L1024 444.814 877.454 591.36l-44.601-44.601 101.945-101.945-101.945-101.945zM515.186 38.855L413.241 140.8 368.64 96.199 515.186-50.347 661.732 96.199 617.131 140.8 515.186 38.855zM512 222.72c124.419 0 225.28 100.861 225.28 225.28S636.419 673.28 512 673.28 286.72 572.419 286.72 448 387.581 222.72 512 222.72z"/><glyph unicode="ꤒ" glyph-name="environment" horiz-adv-x="979" d="M258.226 746.296l-80.139 80.139-66.783-66.783 80.139-80.139 66.783 66.783zM133.565 492.522H0v-89.043h133.565v89.043zm400.696 440.765h-89.043V804.174h89.043v129.113zm333.913-173.635l-66.783 66.783-80.139-80.139 62.33-62.33 84.591 75.687zM721.252 149.704l80.139-80.139 62.33 62.33-80.139 80.139-62.33-62.33zm124.661 342.818v-89.043h133.565v89.043H845.913zM489.739 715.13c-146.922 0-267.13-120.209-267.13-267.13s120.209-267.13 267.13-267.13c146.922 0 267.13 120.209 267.13 267.13S636.66 715.13 489.739 715.13zM445.217-37.287h89.043V91.826h-89.043V-37.287zM111.304 136.348l66.783-66.783 80.139 80.139-62.33 62.33-84.591-75.687z"/><glyph unicode="ꤓ" glyph-name="invoked" d="M512-64C229.23-64 0 165.23 0 448s229.23 512 512 512 512-229.23 512-512S794.77-64 512-64zm0 102.4c226.216 0 409.6 183.384 409.6 409.6S738.216 857.6 512 857.6c-226.216 0-409.6-183.384-409.6-409.6S285.784 38.4 512 38.4zM358.4 601.6h307.2V294.4H358.4v307.2z"/></font></defs></svg>
